X:1
T:Title
%%score ( 1 2 ) { 3 | 4 }
L:1/8
M:3/4
K:G
V:1 treble nm="Grand Piano, Unnamed-000"
V:2 treble 
V:3 bass nm="Choir Pad, Beatitudo, CM"
V:4 bass 
V:1
 [DG]2 [DA]2 [DB]2 | [Dd]4 [DB]2 | G2- [B,G]2 [Ec]2 | [DB]6 | E2 [DF]2 [DG]2 | [DB]4 [^CA]2 | %6
w: By~John~Bacchus~Dykes,~1875 * *||||||
 [DA]6 | [FA]2 [Fd]2 [Dc]2 | [DB]4 [EG]2 | [^DB]4 [FA]2 | [EG]4 [FA]2 | [DB]4 [EB]2 | [Ec]4 [DF]2 | %13
w: |||||||
 [DG]6- | [DG]2 z2 z2 |] %15
w: ||
V:2
 x6 | x6 | C2 z2 z2 | x6 | x6 | x6 | x6 | x6 | x6 | x6 | x6 | x6 | x6 | x6 | x6 |] %15
V:3
 B,2 A,2 G,2 | G,4 G,2 | G,4 G,2 | G,6 | B,2 B,2 B,2 | G,2 F,2 E,2 | F,6 | D2 A,2 A,2 | G,4 G,2 | %9
 F,4 B,2 | B,4 D2 | G,4 ^G,2 | A,4 A,2 | B,6- | B,2 z2 z2 |] %15
V:4
 G,2 F,2 z2 | B,,4 D,2 | E,2 D,2 C,2 | G,,6 | G,2 F,2 E,2 | A,,4 A,,2 | D,6 | D,2 D,2 F,2 | %8
 z2 z2 E,2 | B,,4 ^D,2 | E,4 D,2 | z2 z2 E,2 | A,,4 D,2 | G,,6- | G,,2 z2 z2 |] %15

